Newaita/actions/22/draw-brush.svg

<svg height="22" viewBox="0 0 22 22" width="22" xmlns="http://www.w3.org/2000/svg"><path d="m17.546875 3.929688c-1.246094-1.25-3.253906-1.25-4.5 0l-5.789063 5.785156-.320312.324218c-4.117188 2.226563-1.1875 4.121094-3.867188 7.699219-.242187.234375-.167968.636719.136719.773438 3.6875 1.582031 6.898438.632812 8.230469-3.972657l6.109375-6.109374c1.25-1.246094 1.25-3.253907 0-4.5zm-1.285156 1.285156c.535156.535156.535156 1.394531 0 1.929687l-.589844.585938-1.929687-1.925781.589843-.589844c.535157-.535156 1.394531-.535156 1.929688 0zm-3.160157 1.230468 1.929688 1.929688-.699219.699219-1.929687-1.929688zm-1.34375 1.339844 1.929688 1.929688-3.214844 3.21875-1.929687-1.929688zm-3.457031 6.035156c.964844.964844-.398437 3.613282-2.652343 3.292969 1.289062-1.929687.722656-5.222656 2.652343-3.292969zm0 0" fill="#424242"/></svg>

<?xml version="1.0" encoding="UTF-8"?>
<svg xmlns="http://www.w3.org/2000/svg" xmlns:xlink="http://www.w3.org/1999/xlink" width="22px" height="22px" viewBox="0 0 22 22" version="1.1">
<g id="surface1">
<path style=" stroke:none;fill-rule:nonzero;fill:rgb(25.882354%,25.882354%,25.882354%);fill-opacity:1;" d="M 17.546875 3.929688 C 16.300781 2.679688 14.292969 2.679688 13.046875 3.929688 L 7.257812 9.714844 L 6.9375 10.039062 C 2.820312 12.265625 5.75 14.160156 3.070312 17.738281 C 2.828125 17.972656 2.902344 18.375 3.207031 18.511719 C 6.894531 20.09375 10.105469 19.144531 11.4375 14.539062 L 17.546875 8.429688 C 18.796875 7.183594 18.796875 5.175781 17.546875 3.929688 Z M 16.261719 5.214844 C 16.796875 5.75 16.796875 6.609375 16.261719 7.144531 L 15.671875 7.730469 L 13.742188 5.804688 L 14.332031 5.214844 C 14.867188 4.679688 15.726562 4.679688 16.261719 5.214844 Z M 13.101562 6.445312 L 15.03125 8.375 L 14.332031 9.074219 L 12.402344 7.144531 Z M 11.757812 7.785156 L 13.6875 9.714844 L 10.472656 12.933594 L 8.542969 11.003906 Z M 8.300781 13.820312 C 9.265625 14.785156 7.902344 17.433594 5.648438 17.113281 C 6.9375 15.183594 6.371094 11.890625 8.300781 13.820312 Z M 8.300781 13.820312 "/>
</g>
</svg>
